Simply-Blue-Circles/scalable/status/task-due.svg

<svg xmlns="http://www.w3.org/2000/svg" viewBox="0 0 24 24"><path d="M12 1c-1.3 0-2.4.84-2.81 2H5a2 2 0 0 0-2 2v16a2 2 0 0 0 2 2h14a2 2 0 0 0 2-2V5a2 2 0 0 0-2-2h-4.19c-.4-1.16-1.5-2-2.81-2zm-.04 2A1 1 0 0 1 12 3a1 1 0 0 1 0 2 1 1 0 0 1-.04-2zM5 5h2v3h10V5h2v16H5V5zm7 4.09v.01c-.6 0-1.07.31-1.07.71v5.9c0 .4.48.72 1.07.72.6 0 1.07-.32 1.07-.72v-5.9c0-.4-.48-.72-1.07-.72zm0 8.15c-.6 0-1.07.43-1.07.97s.48.97 1.07.97c.6 0 1.07-.43 1.07-.97s-.48-.97-1.07-.97z" fill="#2c89a0"/></svg>

<?xml version="1.0" encoding="UTF-8" standalone="no"?>
<svg
   xmlns:dc="http://purl.org/dc/elements/1.1/"
   xmlns:cc="http://creativecommons.org/ns#"
   xmlns:rdf="http://www.w3.org/1999/02/22-rdf-syntax-ns#"
   xmlns:svg="http://www.w3.org/2000/svg"
   xmlns="http://www.w3.org/2000/svg"
   xmlns:sodipodi="http://sodipodi.sourceforge.net/DTD/sodipodi-0.dtd"
   xmlns:inkscape="http://www.inkscape.org/namespaces/inkscape"
   viewBox="0 0 24 24"
   version="1.1"
   id="svg6"
   sodipodi:docname="task-due.svg"
   inkscape:version="0.92.4 (5da689c313, 2019-01-14)">
  <metadata
     id="metadata12">
    <rdf:RDF>
      <cc:Work
         rdf:about="">
        <dc:format>image/svg+xml</dc:format>
        <dc:type
           rdf:resource="http://purl.org/dc/dcmitype/StillImage" />
        <dc:title></dc:title>
      </cc:Work>
    </rdf:RDF>
  </metadata>
  <defs
     id="defs10" />
  <sodipodi:namedview
     pagecolor="#ffffff"
     bordercolor="#666666"
     borderopacity="1"
     objecttolerance="10"
     gridtolerance="10"
     guidetolerance="10"
     inkscape:pageopacity="0"
     inkscape:pageshadow="2"
     inkscape:window-width="1085"
     inkscape:window-height="480"
     id="namedview8"
     showgrid="false"
     inkscape:zoom="9.8333333"
     inkscape:cx="1.0677966"
     inkscape:cy="12"
     inkscape:window-x="0"
     inkscape:window-y="25"
     inkscape:window-maximized="0"
     inkscape:current-layer="svg6" />
  <path
     d="M 12,1 C 10.7,1 9.6,1.84 9.19,3 H 5 A 2,2 0 0 0 3,5 v 16 a 2,2 0 0 0 2,2 h 14 a 2,2 0 0 0 2,-2 V 5 A 2,2 0 0 0 19,3 H 14.81 C 14.41,1.84 13.31,1 12,1 Z M 11.96,3 A 1,1 0 0 1 12,3 1,1 0 0 1 12,5 1.0002,1.0002 0 0 1 11.96,3 Z M 5,5 H 7 V 8 H 17 V 5 h 2 V 21 H 5 Z"
     id="path2"
     inkscape:connector-curvature="0"
     style="fill:#2c89a0" />
  <path
     d="m 12,9.1 c -0.6,0 -1.07,0.31 -1.07,0.71 v 5.9 c 0,0.4 0.48,0.72 1.07,0.72 0.6,0 1.07,-0.32 1.07,-0.72 V 9.81 C 13.07,9.41 12.59,9.09 12,9.09 Z m 0,8.14 c -0.6,0 -1.07,0.43 -1.07,0.97 0,0.54 0.48,0.97 1.07,0.97 0.6,0 1.07,-0.43 1.07,-0.97 0,-0.54 -0.48,-0.97 -1.07,-0.97 z"
     id="path4"
     inkscape:connector-curvature="0"
     style="fill:#2c89a0" />
</svg>
